www/assets/icons/border_top.svg

<svg xmlns="http://www.w3.org/2000/svg" width="24" height="24" viewBox="0 0 24 24" fill='currentColor'><path d="M7 21h2v-2H7zm0-8h2v-2H7zm4 0h2v-2h-2zm0 8h2v-2h-2zm-8-4h2v-2H3zm0 4h2v-2H3zm0-8h2v-2H3zm0-4h2V7H3zm8 8h2v-2h-2zm8-8h2V7h-2zm0 4h2v-2h-2zM3 3v2h18V3zm16 14h2v-2h-2zm-4 4h2v-2h-2zM11 9h2V7h-2zm8 12h2v-2h-2zm-4-8h2v-2h-2z"/></svg>

<svg width="24" height="24" viewBox="0 0 24 24" xmlns="http://www.w3.org/2000/svg" fill='currentColor'><path d="M7 21H9V19H7V21ZM7 13H9V11H7V13ZM11 13H13V11H11V13ZM11 21H13V19H11V21ZM3 17H5V15H3V17ZM3 21H5V19H3V21ZM3 13H5V11H3V13ZM3 9H5V7H3V9ZM11 17H13V15H11V17ZM19 9H21V7H19V9ZM19 13H21V11H19V13ZM3 3V5H21V3H3ZM19 17H21V15H19V17ZM15 21H17V19H15V21ZM11 9H13V7H11V9ZM19 21H21V19H19V21ZM15 13H17V11H15V13Z"/></svg>
